X:1
T: Apollo's Hunt
N:
C:by P.J. Vanpelt
S:Tune is "La Chasse d'Apollon"
A:
O:
R:
M:6/8
K:D
I:speed 200
%W: A
% voice 1 (1 lines, 40 notes)
K:D
M:6/8
L:1/16
a2 b2 a2 f2 d2 f2 a2 g2 f2 e4 A2 d4 A2 e4 A2 f2 g2 f2 e6 |a2 b2 a2 f2 d2 f2 a2 g2 f2 e4 A2 d4 A2 e4 A2 f2 g2 f2 e2 d2 d2 |
%W:
% voice 1 (1 lines, 40 notes)
a2 b2 a2 f2 d2 f2 a2 g2 f2 e4 A2 d4 A2 e4 A2 f2 g2 f2 e6 |a2 b2 a2 f2 d2 f2 a2 g2 f2 e4 A2 d4 A2 e4 A2 f2 g2 f2 e2 d2 d2 |
%W: B
% voice 1 (1 lines, 34 notes)
F2 G2 F2 E4 G2 F4 E2 F4 D2 F2 G2 F2 E4 G2 F4 E2 D6 |F2 G2 F2 E4 G2 F4 E2 F4 D2 F2 G2 F2 E4 G2 F4 E2 D6 |
%W:
% voice 1 (1 lines, 34 notes)
F2 G2 F2 E4 G2 F4 E2 F4 D2 F2 G2 F2 E4 G2 F4 E2 D6 |F2 G2 F2 E4 G2 F4 E2 F4 D2 F2 G2 F2 E4 G2 F4 E2 D6 |
%W: C
% voice 1 (1 lines, 44 notes)
A2 B2 A2 d2 f2 d2 A2 B2 A2 F2 A2 F2 E2 F2 G2 F2 E2 D2 C2 D2 E2 A,6 |A2 B2 A2 d2 f2 d2 A2 B2 A2 F2 A2 F2 E2 F2 G2 F2 E2 D2 E2 D2 C2 D6 |
%W:
% voice 1 (1 lines, 44 notes)
A2 B2 A2 d2 f2 d2 A2 B2 A2 F2 A2 F2 E2 F2 G2 F2 E2 D2 C2 D2 E2 A,6 |A2 B2 A2 d2 f2 d2 A2 B2 A2 F2 A2 F2 E2 F2 G2 F2 E2 D2 E2 D2 C2 D6 ||
